svg/Outline/fire.svg

<svg viewBox="0 0 24 24" xmlns="http://www.w3.org/2000/svg" width="24" height="24"><path fill-rule="evenodd" d="M8.85.94c3.7 0 7.12 1.3 9.64 3.36 2.5 2.05 4.17 4.9 4.17 7.98 0 2.3-.73 5.2-2.58 7.2l-.18.2a11 11 0 0 1-3.94 2.66v.01l-.06.02q-1.14.43-2.27.55v-.01q-.8.1-1.61.1a8.2 8.2 0 0 1-6.1-2.49c-.7-.7-1.6-1.77-2-3.2-.43-1.47-.32-3.22.81-5.2.57-.98 1.25-1.76 1.86-2.44.62-.7 1.15-1.25 1.54-1.89.38-.6.63-1.25.65-2.1a9 9 0 0 0-.77-3.52.9.9 0 0 1 .84-1.23m4.4 11.67q.1 1.39-.33 2.4a5.6 5.6 0 0 1-1.87 2.26c-.72.56-1.24.9-1.59 1.38-.28.39-.47.9-.28 1.81q.05.2.24.29a7 7 0 0 0 2.6.46 10 10 0 0 0 2.61-.34l.14-.12q.07-.07.1-.19c.5-1.07.83-2.9.51-4.6a4.8 4.8 0 0 0-2.14-3.35M10.13 2.8a9 9 0 0 1 .44 2.95 6 6 0 0 1-.92 3c-.5.8-1.16 1.5-1.74 2.14-.6.67-1.17 1.32-1.62 2.12-.91 1.6-.94 2.84-.66 3.81.3 1 .94 1.82 1.55 2.43l.14.13q.1-1.04.68-1.8c.54-.73 1.37-1.29 1.93-1.73a4 4 0 0 0 1.32-1.52c.24-.58.34-1.46-.08-2.92a.9.9 0 0 1 1.09-1.12c3.05.76 4.45 3.03 4.88 5.34.27 1.4.18 2.87-.1 4.12q.77-.54 1.56-1.34l.29-.3a9.3 9.3 0 0 0 1.96-5.83c0-2.42-1.31-4.8-3.51-6.59a13.5 13.5 0 0 0-7.21-2.9" clip-rule="evenodd"/></svg>

<svg viewBox="0 0 24 24" xmlns="http://www.w3.org/2000/svg" width="24" height="24"><path fill-rule="evenodd" d="M8.85 .94C12.55 .94 15.97 2.24 18.49 4.3C20.99 6.35 22.66 9.2 22.66 12.28C22.66 14.58 21.93 17.48 20.08 19.48L19.9 19.68A11 11 0 0 1 15.96 22.34L15.9 22.37Q14.76 22.8 13.63 22.92L13.63 22.91Q12.83 23.01 12.02 23.01A8.2 8.2 0 0 1 5.92 20.52C5.22 19.82 4.32 18.75 3.92 17.32C3.49 15.85 3.6 14.1 4.73 12.12C5.3 11.14 5.98 10.36 6.59 9.68C7.21 8.98 7.74 8.43 8.13 7.79C8.51 7.19 8.76 6.54 8.78 5.69A9 9 0 0 0 8.01 2.17A.9 .9 0 0 1 8.85 .94M13.25 12.61q.1 1.39-.33 2.4a5.6 5.6 0 0 1-1.87 2.26c-.72.56-1.24.9-1.59 1.38-.28.39-.47.9-.28 1.81q.05.2.24.29a7 7 0 0 0 2.6.46 10 10 0 0 0 2.61-.34l.14-.12q.07-.07.1-.19c.5-1.07.83-2.9.51-4.6a4.8 4.8 0 0 0-2.14-3.35M10.13 2.8a9 9 0 0 1 .44 2.95 6 6 0 0 1-.92 3c-.5.8-1.16 1.5-1.74 2.14-.6.67-1.17 1.32-1.62 2.12-.91 1.6-.94 2.84-.66 3.81.3 1 .94 1.82 1.55 2.43l.14.13q.1-1.04.68-1.8c.54-.73 1.37-1.29 1.93-1.73a4 4 0 0 0 1.32-1.52c.24-.58.34-1.46-.08-2.92a.9.9 0 0 1 1.09-1.12c3.05.76 4.45 3.03 4.88 5.34.27 1.4.18 2.87-.1 4.12q.77-.54 1.56-1.34l.29-.3a9.3 9.3 0 0 0 1.96-5.83c0-2.42-1.31-4.8-3.51-6.59a13.5 13.5 0 0 0-7.21-2.9" clip-rule="evenodd"/></svg>
